X:173
T:Poor Old Woman
M:4/4
L:1/8
R:Reel
K:Am
ed | "Am" c2 (Bc) AcBA | "Em" GEGA "G" GAcd | "Am" edcB ABcd | "Em" e2A2
Afed |
"Am" c2 (Bc) AcBA | "Em" GEGA "G" GAcd | "Am" eg^fa "G" gedB | "Am" A4
A2 :|
|: e^f | "C" g2 (ga) gedB | "Am" A2 AB A2 e^f | "C" g2 (ga) gedc | "G" B
cAB "Em" G2B2 |
"Am" AEAB AcBA | "Em" GEGA "G" GAcd | "Am" eg^fa "G"  gedB | "Am" A4 A2
:|
